X:1
T:In the Pines
M:3/4
L:1/8
K:C
 E3/2 E/2| E4 C3/2 C/2| c4 c3/2 c/2| A3 A A2| F4 A3/2- c/2| c c3 G3/2 G/2|\
 G- c3 E2| E- D3- D2-| D4 E3/2 E/2| C4 C3/2 C/2| c4 c3/2 c/2| A3 A A2|\
 F4 A3/2- c/2| c c3 G3/2 E/2| D- E3 E3/2- D/2| C6-| C4||
